X:954
T:Jumping Joan
S:Aird Vol.4, c1798
Z:Nigel Gatherer
M:4/4
L:1/8
K:G
g2 dB G2 BG | E2 AE FDDF | g2 dB G2 BG | EAFD G2 G :|
g | efge fgba | gfge fddf | efge fgag | fefd g2 Bd |
efge dBgB | ceBd AFED | GABG EGce | dBcA G2 G ||
<end>
<start>
